images/50164386.svg

<?xml version="1.0" encoding="UTF-8"?>
<svg xmlns="http://www.w3.org/2000/svg" xmlns:xlink="http://www.w3.org/1999/xlink" width="300pt" height="300pt" viewBox="0 0 300 300" version="1.1">
<defs>
<g>
<symbol overflow="visible" id="glyph0-0">
<path style="stroke:none;" d="M 0.546875 1.9375 L 0.546875 -7.75 L 6.046875 -7.75 L 6.046875 1.9375 Z M 1.171875 1.328125 L 5.4375 1.328125 L 5.4375 -7.140625 L 1.171875 -7.140625 Z M 1.171875 1.328125 "/>
</symbol>
<symbol overflow="visible" id="glyph0-1">
<path style="stroke:none;" d="M 7.078125 -7.40625 L 7.078125 -6.25 C 6.710938 -6.59375 6.320312 -6.847656 5.90625 -7.015625 C 5.5 -7.179688 5.0625 -7.265625 4.59375 -7.265625 C 3.675781 -7.265625 2.972656 -6.984375 2.484375 -6.421875 C 2.003906 -5.867188 1.765625 -5.0625 1.765625 -4 C 1.765625 -2.945312 2.003906 -2.140625 2.484375 -1.578125 C 2.972656 -1.015625 3.675781 -0.734375 4.59375 -0.734375 C 5.0625 -0.734375 5.5 -0.816406 5.90625 -0.984375 C 6.320312 -1.148438 6.710938 -1.40625 7.078125 -1.75 L 7.078125 -0.625 C 6.703125 -0.363281 6.300781 -0.164062 5.875 -0.03125 C 5.457031 0.09375 5.007812 0.15625 4.53125 0.15625 C 3.320312 0.15625 2.367188 -0.210938 1.671875 -0.953125 C 0.972656 -1.703125 0.625 -2.71875 0.625 -4 C 0.625 -5.289062 0.972656 -6.304688 1.671875 -7.046875 C 2.367188 -7.796875 3.320312 -8.171875 4.53125 -8.171875 C 5.007812 -8.171875 5.460938 -8.101562 5.890625 -7.96875 C 6.316406 -7.84375 6.710938 -7.65625 7.078125 -7.40625 Z M 7.078125 -7.40625 "/>
</symbol>
<symbol overflow="visible" id="glyph0-2">
<path style="stroke:none;" d="M 1.03125 -8.359375 L 2.03125 -8.359375 L 2.03125 0 L 1.03125 0 Z M 1.03125 -8.359375 "/>
</symbol>
<symbol overflow="visible" id="glyph0-3">
<path style="stroke:none;" d="M 1.078125 -8.015625 L 2.546875 -8.015625 L 6.09375 -1.3125 L 6.09375 -8.015625 L 7.15625 -8.015625 L 7.15625 0 L 5.6875 0 L 2.125 -6.703125 L 2.125 0 L 1.078125 0 Z M 1.078125 -8.015625 "/>
</symbol>
<symbol overflow="visible" id="glyph0-4">
<path style="stroke:none;" d="M 1.078125 -8.015625 L 2.171875 -8.015625 L 2.171875 -4.734375 L 6.109375 -4.734375 L 6.109375 -8.015625 L 7.1875 -8.015625 L 7.1875 0 L 6.109375 0 L 6.109375 -3.8125 L 2.171875 -3.8125 L 2.171875 0 L 1.078125 0 Z M 1.078125 -8.015625 "/>
</symbol>
<symbol overflow="visible" id="glyph0-5">
<path style="stroke:none;" d="M 4.328125 -7.28125 C 3.546875 -7.28125 2.921875 -6.984375 2.453125 -6.390625 C 1.992188 -5.804688 1.765625 -5.007812 1.765625 -4 C 1.765625 -2.988281 1.992188 -2.1875 2.453125 -1.59375 C 2.921875 -1.007812 3.546875 -0.71875 4.328125 -0.71875 C 5.117188 -0.71875 5.742188 -1.007812 6.203125 -1.59375 C 6.660156 -2.1875 6.890625 -2.988281 6.890625 -4 C 6.890625 -5.007812 6.660156 -5.804688 6.203125 -6.390625 C 5.742188 -6.984375 5.117188 -7.28125 4.328125 -7.28125 Z M 4.328125 -8.171875 C 5.453125 -8.171875 6.351562 -7.789062 7.03125 -7.03125 C 7.707031 -6.28125 8.046875 -5.269531 8.046875 -4 C 8.046875 -2.738281 7.707031 -1.726562 7.03125 -0.96875 C 6.351562 -0.21875 5.453125 0.15625 4.328125 0.15625 C 3.203125 0.15625 2.300781 -0.21875 1.625 -0.96875 C 0.957031 -1.71875 0.625 -2.726562 0.625 -4 C 0.625 -5.269531 0.957031 -6.28125 1.625 -7.03125 C 2.300781 -7.789062 3.203125 -8.171875 4.328125 -8.171875 Z M 4.328125 -8.171875 "/>
</symbol>
</g>
</defs>
<g id="surface20465">
<rect x="0" y="0" width="300" height="300" style="fill:rgb(100%,100%,100%);fill-opacity:1;stroke:none;"/>
<path style="fill:none;stroke-width:1.2;stroke-linecap:butt;stroke-linejoin:miter;stroke:rgb(0%,80%,0%);stroke-opacity:1;stroke-miterlimit:10;" d="M 216.136719 196.996094 L 217.015625 183.472656 "/>
<path style="fill:none;stroke-width:1.2;stroke-linecap:butt;stroke-linejoin:miter;stroke:rgb(0%,0%,0%);stroke-opacity:1;stroke-miterlimit:10;" d="M 217.015625 183.472656 L 217.894531 169.945312 "/>
<path style=" stroke:none;fill-rule:nonzero;fill:rgb(100%,100%,100%);fill-opacity:1;" d="M 211.136719 190.496094 L 222.136719 190.496094 L 222.136719 203.496094 L 211.136719 203.496094 Z M 211.136719 190.496094 "/>
<g style="fill:rgb(0%,80%,0%);fill-opacity:1;">
  <use xlink:href="#glyph0-1" x="211.136719" y="200.397461"/>
  <use xlink:href="#glyph0-2" x="218.587891" y="200.397461"/>
</g>
<path style="fill:none;stroke-width:1.2;stroke-linecap:butt;stroke-linejoin:miter;stroke:rgb(0%,0%,0%);stroke-opacity:1;stroke-miterlimit:10;" d="M 217.894531 169.945312 L 195.347656 154.898438 "/>
<path style="fill:none;stroke-width:1.2;stroke-linecap:butt;stroke-linejoin:miter;stroke:rgb(0%,0%,0%);stroke-opacity:1;stroke-miterlimit:10;" d="M 219.179688 163.136719 L 201.144531 151.097656 "/>
<path style="fill:none;stroke-width:1.2;stroke-linecap:butt;stroke-linejoin:miter;stroke:rgb(0%,0%,0%);stroke-opacity:1;stroke-miterlimit:10;" d="M 242.203125 157.945312 L 217.894531 169.945312 "/>
<path style="fill:none;stroke-width:1.2;stroke-linecap:butt;stroke-linejoin:miter;stroke:rgb(0%,0%,0%);stroke-opacity:1;stroke-miterlimit:10;" d="M 195.347656 154.898438 L 183.195312 160.898438 "/>
<path style="fill:none;stroke-width:1.2;stroke-linecap:butt;stroke-linejoin:miter;stroke:rgb(0%,0%,100%);stroke-opacity:1;stroke-miterlimit:10;" d="M 183.195312 160.898438 L 171.039062 166.898438 "/>
<path style="fill:none;stroke-width:1.2;stroke-linecap:butt;stroke-linejoin:miter;stroke:rgb(0%,0%,0%);stroke-opacity:1;stroke-miterlimit:10;" d="M 195.347656 154.898438 L 197.105469 127.84375 "/>
<path style="fill:none;stroke-width:1.2;stroke-linecap:butt;stroke-linejoin:miter;stroke:rgb(0%,0%,100%);stroke-opacity:1;stroke-miterlimit:10;" d="M 171.039062 166.898438 L 159.765625 159.375 "/>
<path style="fill:none;stroke-width:1.2;stroke-linecap:butt;stroke-linejoin:miter;stroke:rgb(0%,0%,0%);stroke-opacity:1;stroke-miterlimit:10;" d="M 159.765625 159.375 L 148.492188 151.851562 "/>
<path style=" stroke:none;fill-rule:nonzero;fill:rgb(100%,100%,100%);fill-opacity:1;" d="M 163.039062 160.398438 L 180.039062 160.398438 L 180.039062 173.398438 L 163.039062 173.398438 Z M 163.039062 160.398438 "/>
<g style="fill:rgb(0%,0%,100%);fill-opacity:1;">
  <use xlink:href="#glyph0-3" x="163.039062" y="170.299805"/>
  <use xlink:href="#glyph0-4" x="171.022461" y="170.299805"/>
</g>
<path style="fill:none;stroke-width:1.2;stroke-linecap:butt;stroke-linejoin:miter;stroke:rgb(0%,0%,0%);stroke-opacity:1;stroke-miterlimit:10;" d="M 151.675781 152.058594 L 152.554688 138.53125 "/>
<path style="fill:none;stroke-width:1.2;stroke-linecap:butt;stroke-linejoin:miter;stroke:rgb(100%,0%,0%);stroke-opacity:1;stroke-miterlimit:10;" d="M 152.554688 138.53125 L 153.433594 125.007812 "/>
<path style="fill:none;stroke-width:1.2;stroke-linecap:butt;stroke-linejoin:miter;stroke:rgb(0%,0%,0%);stroke-opacity:1;stroke-miterlimit:10;" d="M 145.3125 151.644531 L 146.191406 138.117188 "/>
<path style="fill:none;stroke-width:1.2;stroke-linecap:butt;stroke-linejoin:miter;stroke:rgb(100%,0%,0%);stroke-opacity:1;stroke-miterlimit:10;" d="M 146.191406 138.117188 L 147.070312 124.59375 "/>
<path style="fill:none;stroke-width:1.2;stroke-linecap:butt;stroke-linejoin:miter;stroke:rgb(0%,0%,0%);stroke-opacity:1;stroke-miterlimit:10;" d="M 148.492188 151.851562 L 136.339844 157.851562 "/>
<path style="fill:none;stroke-width:1.2;stroke-linecap:butt;stroke-linejoin:miter;stroke:rgb(0%,0%,100%);stroke-opacity:1;stroke-miterlimit:10;" d="M 136.339844 157.851562 L 124.1875 163.851562 "/>
<path style=" stroke:none;fill-rule:nonzero;fill:rgb(100%,100%,100%);fill-opacity:1;" d="M 146.253906 118.300781 L 155.253906 118.300781 L 155.253906 131.300781 L 146.253906 131.300781 Z M 146.253906 118.300781 "/>
<g style="fill:rgb(100%,0%,0%);fill-opacity:1;">
  <use xlink:href="#glyph0-5" x="146.253906" y="128.202148"/>
</g>
<path style="fill:none;stroke-width:1.2;stroke-linecap:butt;stroke-linejoin:miter;stroke:rgb(0%,0%,100%);stroke-opacity:1;stroke-miterlimit:10;" d="M 124.1875 163.851562 L 112.914062 156.328125 "/>
<path style="fill:none;stroke-width:1.2;stroke-linecap:butt;stroke-linejoin:miter;stroke:rgb(0%,0%,0%);stroke-opacity:1;stroke-miterlimit:10;" d="M 112.914062 156.328125 L 101.636719 148.804688 "/>
<path style=" stroke:none;fill-rule:nonzero;fill:rgb(100%,100%,100%);fill-opacity:1;" d="M 116.1875 157.351562 L 133.1875 157.351562 L 133.1875 170.351562 L 116.1875 170.351562 Z M 116.1875 157.351562 "/>
<g style="fill:rgb(0%,0%,100%);fill-opacity:1;">
  <use xlink:href="#glyph0-3" x="116.1875" y="167.25293"/>
  <use xlink:href="#glyph0-4" x="124.170898" y="167.25293"/>
</g>
<path style="fill:none;stroke-width:1.2;stroke-linecap:butt;stroke-linejoin:miter;stroke:rgb(0%,0%,0%);stroke-opacity:1;stroke-miterlimit:10;" d="M 101.636719 148.804688 L 88.925781 153.503906 "/>
<path style="fill:none;stroke-width:1.2;stroke-linecap:butt;stroke-linejoin:miter;stroke:rgb(0%,0%,100%);stroke-opacity:1;stroke-miterlimit:10;" d="M 88.925781 153.503906 L 76.210938 158.199219 "/>
<path style="fill:none;stroke-width:1.2;stroke-linecap:butt;stroke-linejoin:miter;stroke:rgb(0%,0%,0%);stroke-opacity:1;stroke-miterlimit:10;" d="M 100.558594 121.71875 L 101.636719 148.804688 "/>
<path style="fill:none;stroke-width:1.2;stroke-linecap:butt;stroke-linejoin:miter;stroke:rgb(0%,0%,0%);stroke-opacity:1;stroke-miterlimit:10;" d="M 94.292969 124.679688 L 95.15625 146.347656 "/>
<path style="fill:none;stroke-width:1.2;stroke-linecap:butt;stroke-linejoin:miter;stroke:rgb(0%,0%,100%);stroke-opacity:1;stroke-miterlimit:10;" d="M 76.210938 158.199219 L 59.417969 136.921875 "/>
<path style="fill:none;stroke-width:1.2;stroke-linecap:butt;stroke-linejoin:miter;stroke:rgb(0%,0%,100%);stroke-opacity:1;stroke-miterlimit:10;" d="M 76.210938 158.199219 L 72.539062 171.246094 "/>
<path style="fill:none;stroke-width:1.2;stroke-linecap:butt;stroke-linejoin:miter;stroke:rgb(0%,0%,0%);stroke-opacity:1;stroke-miterlimit:10;" d="M 72.539062 171.246094 L 68.867188 184.292969 "/>
<path style=" stroke:none;fill-rule:nonzero;fill:rgb(100%,100%,100%);fill-opacity:1;" d="M 72.210938 151.699219 L 80.210938 151.699219 L 80.210938 164.699219 L 72.210938 164.699219 Z M 72.210938 151.699219 "/>
<g style="fill:rgb(0%,0%,100%);fill-opacity:1;">
  <use xlink:href="#glyph0-3" x="72.210938" y="161.600586"/>
</g>
<path style="fill:none;stroke-width:1.2;stroke-linecap:butt;stroke-linejoin:miter;stroke:rgb(0%,0%,100%);stroke-opacity:1;stroke-miterlimit:10;" d="M 59.417969 136.921875 L 66.941406 125.644531 "/>
<path style="fill:none;stroke-width:1.2;stroke-linecap:butt;stroke-linejoin:miter;stroke:rgb(0%,0%,0%);stroke-opacity:1;stroke-miterlimit:10;" d="M 66.941406 125.644531 L 74.464844 114.371094 "/>
<path style="fill:none;stroke-width:1.2;stroke-linecap:butt;stroke-linejoin:miter;stroke:rgb(0%,0%,100%);stroke-opacity:1;stroke-miterlimit:10;" d="M 66.226562 138.207031 L 72.246094 129.1875 "/>
<path style="fill:none;stroke-width:1.2;stroke-linecap:butt;stroke-linejoin:miter;stroke:rgb(0%,0%,0%);stroke-opacity:1;stroke-miterlimit:10;" d="M 72.246094 129.1875 L 78.265625 120.167969 "/>
<path style=" stroke:none;fill-rule:nonzero;fill:rgb(100%,100%,100%);fill-opacity:1;" d="M 55.417969 130.421875 L 63.417969 130.421875 L 63.417969 143.421875 L 55.417969 143.421875 Z M 55.417969 130.421875 "/>
<g style="fill:rgb(0%,0%,100%);fill-opacity:1;">
  <use xlink:href="#glyph0-3" x="55.417969" y="140.323242"/>
</g>
<path style="fill:none;stroke-width:1.2;stroke-linecap:butt;stroke-linejoin:miter;stroke:rgb(0%,0%,0%);stroke-opacity:1;stroke-miterlimit:10;" d="M 74.464844 114.371094 L 100.558594 121.71875 "/>
<path style="fill:none;stroke-width:1.2;stroke-linecap:butt;stroke-linejoin:miter;stroke:rgb(0%,0%,0%);stroke-opacity:1;stroke-miterlimit:10;" d="M 74.464844 114.371094 L 65.070312 88.945312 "/>
<path style="fill:none;stroke-width:1.2;stroke-linecap:butt;stroke-linejoin:miter;stroke:rgb(0%,0%,0%);stroke-opacity:1;stroke-miterlimit:10;" d="M 65.070312 88.945312 L 90.496094 79.546875 "/>
<path style="fill:none;stroke-width:1.2;stroke-linecap:butt;stroke-linejoin:miter;stroke:rgb(0%,0%,0%);stroke-opacity:1;stroke-miterlimit:10;" d="M 65.070312 88.945312 L 39.640625 98.339844 "/>
<path style="fill:none;stroke-width:1.2;stroke-linecap:butt;stroke-linejoin:miter;stroke:rgb(0%,0%,0%);stroke-opacity:1;stroke-miterlimit:10;" d="M 65.070312 88.945312 L 55.671875 63.515625 "/>
<path style="fill:none;stroke-width:1.2;stroke-linecap:butt;stroke-linejoin:miter;stroke:rgb(0%,0%,0%);stroke-opacity:1;stroke-miterlimit:10;" d="M 68.867188 184.292969 L 55.730469 187.636719 "/>
<path style="fill:none;stroke-width:1.2;stroke-linecap:butt;stroke-linejoin:miter;stroke:rgb(0%,0%,100%);stroke-opacity:1;stroke-miterlimit:10;" d="M 55.730469 187.636719 L 42.59375 190.980469 "/>
<path style="fill:none;stroke-width:1.2;stroke-linecap:butt;stroke-linejoin:miter;stroke:rgb(0%,0%,0%);stroke-opacity:1;stroke-miterlimit:10;" d="M 67.8125 191.144531 L 57.304688 193.820312 "/>
<path style="fill:none;stroke-width:1.2;stroke-linecap:butt;stroke-linejoin:miter;stroke:rgb(0%,0%,100%);stroke-opacity:1;stroke-miterlimit:10;" d="M 57.304688 193.820312 L 46.796875 196.492188 "/>
<path style="fill:none;stroke-width:1.2;stroke-linecap:butt;stroke-linejoin:miter;stroke:rgb(0%,0%,0%);stroke-opacity:1;stroke-miterlimit:10;" d="M 87.792969 203.703125 L 68.867188 184.292969 "/>
<path style="fill:none;stroke-width:1.2;stroke-linecap:butt;stroke-linejoin:miter;stroke:rgb(0%,0%,100%);stroke-opacity:1;stroke-miterlimit:10;" d="M 42.59375 190.980469 L 38.921875 204.027344 "/>
<path style="fill:none;stroke-width:1.2;stroke-linecap:butt;stroke-linejoin:miter;stroke:rgb(0%,0%,0%);stroke-opacity:1;stroke-miterlimit:10;" d="M 38.921875 204.027344 L 35.25 217.074219 "/>
<path style=" stroke:none;fill-rule:nonzero;fill:rgb(100%,100%,100%);fill-opacity:1;" d="M 38.59375 184.480469 L 46.59375 184.480469 L 46.59375 197.480469 L 38.59375 197.480469 Z M 38.59375 184.480469 "/>
<g style="fill:rgb(0%,0%,100%);fill-opacity:1;">
  <use xlink:href="#glyph0-3" x="38.59375" y="194.381836"/>
</g>
<path style="fill:none;stroke-width:1.2;stroke-linecap:butt;stroke-linejoin:miter;stroke:rgb(0%,0%,0%);stroke-opacity:1;stroke-miterlimit:10;" d="M 35.25 217.074219 L 54.175781 236.484375 "/>
<path style="fill:none;stroke-width:1.2;stroke-linecap:butt;stroke-linejoin:miter;stroke:rgb(0%,0%,0%);stroke-opacity:1;stroke-miterlimit:10;" d="M 41.710938 214.5625 L 56.851562 230.089844 "/>
<path style="fill:none;stroke-width:1.2;stroke-linecap:butt;stroke-linejoin:miter;stroke:rgb(0%,0%,0%);stroke-opacity:1;stroke-miterlimit:10;" d="M 54.175781 236.484375 L 80.445312 229.796875 "/>
<path style="fill:none;stroke-width:1.2;stroke-linecap:butt;stroke-linejoin:miter;stroke:rgb(0%,0%,0%);stroke-opacity:1;stroke-miterlimit:10;" d="M 80.445312 229.796875 L 87.792969 203.703125 "/>
<path style="fill:none;stroke-width:1.2;stroke-linecap:butt;stroke-linejoin:miter;stroke:rgb(0%,0%,0%);stroke-opacity:1;stroke-miterlimit:10;" d="M 75.042969 225.460938 L 80.917969 204.585938 "/>
<path style="fill:none;stroke-width:1.2;stroke-linecap:butt;stroke-linejoin:miter;stroke:rgb(0%,0%,0%);stroke-opacity:1;stroke-miterlimit:10;" d="M 197.105469 127.84375 L 221.414062 115.84375 "/>
<path style="fill:none;stroke-width:1.2;stroke-linecap:butt;stroke-linejoin:miter;stroke:rgb(0%,0%,0%);stroke-opacity:1;stroke-miterlimit:10;" d="M 202.359375 132.363281 L 221.808594 122.761719 "/>
<path style="fill:none;stroke-width:1.2;stroke-linecap:butt;stroke-linejoin:miter;stroke:rgb(0%,0%,0%);stroke-opacity:1;stroke-miterlimit:10;" d="M 221.414062 115.84375 L 243.960938 130.890625 "/>
<path style="fill:none;stroke-width:1.2;stroke-linecap:butt;stroke-linejoin:miter;stroke:rgb(0%,0%,0%);stroke-opacity:1;stroke-miterlimit:10;" d="M 243.960938 130.890625 L 242.203125 157.945312 "/>
<path style="fill:none;stroke-width:1.2;stroke-linecap:butt;stroke-linejoin:miter;stroke:rgb(0%,0%,0%);stroke-opacity:1;stroke-miterlimit:10;" d="M 237.421875 133.183594 L 236.011719 154.824219 "/>
<path style="fill:none;stroke-width:1.2;stroke-linecap:butt;stroke-linejoin:miter;stroke:rgb(0%,0%,0%);stroke-opacity:1;stroke-miterlimit:10;" d="M 242.203125 157.945312 L 253.476562 165.46875 "/>
<path style="fill:none;stroke-width:1.2;stroke-linecap:butt;stroke-linejoin:miter;stroke:rgb(0%,80%,0%);stroke-opacity:1;stroke-miterlimit:10;" d="M 253.476562 165.46875 L 264.75 172.992188 "/>
<path style=" stroke:none;fill-rule:nonzero;fill:rgb(100%,100%,100%);fill-opacity:1;" d="M 259.75 166.492188 L 270.75 166.492188 L 270.75 179.492188 L 259.75 179.492188 Z M 259.75 166.492188 "/>
<g style="fill:rgb(0%,80%,0%);fill-opacity:1;">
  <use xlink:href="#glyph0-1" x="259.75" y="176.393555"/>
  <use xlink:href="#glyph0-2" x="267.201172" y="176.393555"/>
</g>
</g>
</svg>

<svg xmlns="http://www.w3.org/2000/svg" xmlns:xlink="http://www.w3.org/1999/xlink" width="300pt" height="300pt" viewBox="0 0 300 300"><defs><symbol overflow="visible"><path d="M.547 1.938V-7.75h5.5v9.688zm.625-.61h4.266v-8.47H1.171zm0 0"/></symbol><symbol overflow="visible" id="a"><path d="M7.078-7.406v1.156c-.367-.344-.758-.598-1.172-.766-.406-.164-.843-.25-1.312-.25-.918 0-1.62.282-2.11.844-.48.555-.718 1.36-.718 2.422 0 1.055.238 1.86.718 2.422.49.562 1.192.844 2.11.844.468 0 .906-.082 1.312-.25.414-.164.805-.422 1.172-.766v1.125c-.375.262-.777.46-1.203.594-.418.124-.867.186-1.344.186-1.21 0-2.163-.367-2.858-1.11C.972-1.703.625-2.718.625-4c0-1.29.348-2.305 1.047-3.047.695-.75 1.648-1.125 2.86-1.125.476 0 .93.07 1.36.203.424.126.82.314 1.186.564zm0 0"/></symbol><symbol overflow="visible" id="b"><path d="M1.03-8.36h1V0h-1zm0 0"/></symbol><symbol overflow="visible" id="c"><path d="M1.078-8.016h1.47l3.546 6.704v-6.704h1.062V0H5.688L2.124-6.703V0H1.078zm0 0"/></symbol><symbol overflow="visible" id="d"><path d="M1.078-8.016h1.094v3.282H6.11v-3.282h1.077V0H6.11v-3.813H2.17V0H1.078zm0 0"/></symbol><symbol overflow="visible" id="e"><path d="M4.328-7.28c-.78 0-1.406.296-1.875.89-.46.585-.687 1.382-.687 2.39 0 1.012.226 1.813.687 2.406.47.586 1.094.875 1.875.875.79 0 1.414-.288 1.875-.874.457-.593.688-1.394.688-2.406 0-1.008-.23-1.805-.687-2.39-.46-.594-1.086-.89-1.875-.89zm0-.892c1.125 0 2.024.383 2.703 1.14C7.708-6.28 8.048-5.27 8.048-4c0 1.262-.34 2.273-1.016 3.03C6.353-.22 5.454.157 4.33.157S2.3-.22 1.625-.97c-.668-.75-1-1.757-1-3.03 0-1.27.332-2.28 1-3.03.676-.76 1.578-1.142 2.703-1.142zm0 0"/></symbol></defs><g><path fill="#fff" d="M0 0h300v300H0z"/><path d="M216.137 196.996l.88-13.523" stroke-width="1.2" stroke="#0c0" stroke-miterlimit="10" fill="none"/><path d="M217.016 183.473l.88-13.528" stroke-width="1.2" stroke="#000" stroke-miterlimit="10" fill="none"/><path d="M211.137 190.496h11v13h-11zm0 0" fill="#fff"/><g fill="#0c0"><use xlink:href="#a" x="211.137" y="200.397"/><use xlink:href="#b" x="218.588" y="200.397"/></g><path d="M217.895 169.945l-22.547-15.047M219.18 163.137l-18.035-12.04M242.203 157.945l-24.308 12M195.348 154.898l-12.153 6" stroke-width="1.2" stroke="#000" stroke-miterlimit="10" fill="none"/><path d="M183.195 160.898l-12.156 6" stroke-width="1.2" stroke="#00f" stroke-miterlimit="10" fill="none"/><path d="M195.348 154.898l1.757-27.054" stroke-width="1.2" stroke="#000" stroke-miterlimit="10" fill="none"/><path d="M171.04 166.898l-11.274-7.523" stroke-width="1.2" stroke="#00f" stroke-miterlimit="10" fill="none"/><path d="M159.766 159.375l-11.274-7.523" stroke-width="1.2" stroke="#000" stroke-miterlimit="10" fill="none"/><path d="M163.04 160.398h17v13h-17zm0 0" fill="#fff"/><g fill="#00f"><use xlink:href="#c" x="163.039" y="170.3"/><use xlink:href="#d" x="171.022" y="170.3"/></g><path d="M151.676 152.06l.88-13.53" stroke-width="1.2" stroke="#000" stroke-miterlimit="10" fill="none"/><path d="M152.555 138.53l.88-13.522" stroke-width="1.2" stroke="#f00" stroke-miterlimit="10" fill="none"/><path d="M145.313 151.645l.878-13.528" stroke-width="1.2" stroke="#000" stroke-miterlimit="10" fill="none"/><path d="M146.19 138.117l.88-13.523" stroke-width="1.2" stroke="#f00" stroke-miterlimit="10" fill="none"/><path d="M148.492 151.852l-12.152 6" stroke-width="1.2" stroke="#000" stroke-miterlimit="10" fill="none"/><path d="M136.34 157.852l-12.153 6" stroke-width="1.2" stroke="#00f" stroke-miterlimit="10" fill="none"/><path d="M146.254 118.3h9v13h-9zm0 0" fill="#fff"/><use xlink:href="#e" x="146.254" y="128.202" fill="#f00"/><path d="M124.188 163.852l-11.274-7.524" stroke-width="1.2" stroke="#00f" stroke-miterlimit="10" fill="none"/><path d="M112.914 156.328l-11.277-7.523" stroke-width="1.2" stroke="#000" stroke-miterlimit="10" fill="none"/><path d="M116.188 157.352h17v13h-17zm0 0" fill="#fff"/><g fill="#00f"><use xlink:href="#c" x="116.188" y="167.253"/><use xlink:href="#d" x="124.171" y="167.253"/></g><path d="M101.637 148.805l-12.71 4.7" stroke-width="1.2" stroke="#000" stroke-miterlimit="10" fill="none"/><path d="M88.926 153.504L76.21 158.2" stroke-width="1.2" stroke="#00f" stroke-miterlimit="10" fill="none"/><path d="M100.56 121.72l1.077 27.085M94.293 124.68l.863 21.668" stroke-width="1.2" stroke="#000" stroke-miterlimit="10" fill="none"/><path d="M76.21 158.2L59.42 136.92M76.21 158.2l-3.67 13.046" stroke-width="1.2" stroke="#00f" stroke-miterlimit="10" fill="none"/><path d="M72.54 171.246l-3.673 13.047" stroke-width="1.2" stroke="#000" stroke-miterlimit="10" fill="none"/><path d="M72.21 151.7h8v13h-8zm0 0" fill="#fff"/><use xlink:href="#c" x="72.211" y="161.601" fill="#00f"/><path d="M59.418 136.922l7.523-11.277" stroke-width="1.2" stroke="#00f" stroke-miterlimit="10" fill="none"/><path d="M66.94 125.645l7.525-11.274" stroke-width="1.2" stroke="#000" stroke-miterlimit="10" fill="none"/><path d="M66.227 138.207l6.02-9.02" stroke-width="1.2" stroke="#00f" stroke-miterlimit="10" fill="none"/><path d="M72.246 129.188l6.02-9.02" stroke-width="1.2" stroke="#000" stroke-miterlimit="10" fill="none"/><path d="M55.418 130.422h8v13h-8zm0 0" fill="#fff"/><use xlink:href="#c" x="55.418" y="140.323" fill="#00f"/><path d="M74.465 114.37l26.094 7.35M74.465 114.37L65.07 88.946M65.07 88.945l25.426-9.398M65.07 88.945L39.64 98.34M65.07 88.945l-9.398-25.43M68.867 184.293l-13.137 3.344" stroke-width="1.2" stroke="#000" stroke-miterlimit="10" fill="none"/><path d="M55.73 187.637l-13.136 3.343" stroke-width="1.2" stroke="#00f" stroke-miterlimit="10" fill="none"/><path d="M67.813 191.145l-10.508 2.675" stroke-width="1.2" stroke="#000" stroke-miterlimit="10" fill="none"/><path d="M57.305 193.82l-10.508 2.672" stroke-width="1.2" stroke="#00f" stroke-miterlimit="10" fill="none"/><path d="M87.793 203.703l-18.926-19.41" stroke-width="1.2" stroke="#000" stroke-miterlimit="10" fill="none"/><path d="M42.594 190.98l-3.672 13.047" stroke-width="1.2" stroke="#00f" stroke-miterlimit="10" fill="none"/><path d="M38.922 204.027l-3.672 13.047" stroke-width="1.2" stroke="#000" stroke-miterlimit="10" fill="none"/><path d="M38.594 184.48h8v13h-8zm0 0" fill="#fff"/><use xlink:href="#c" x="38.594" y="194.382" fill="#00f"/><path d="M35.25 217.074l18.926 19.41M41.71 214.563l15.142 15.527M54.176 236.484l26.27-6.687M80.445 229.797l7.348-26.094M75.043 225.46l5.875-20.874M197.105 127.844l24.31-12M202.36 132.363l19.45-9.6M221.414 115.844l22.547 15.047M243.96 130.89l-1.757 27.055M237.422 133.184l-1.41 21.64M242.203 157.945l11.274 7.524" stroke-width="1.2" stroke="#000" stroke-miterlimit="10" fill="none"/><path d="M253.477 165.47l11.273 7.522" stroke-width="1.2" stroke="#0c0" stroke-miterlimit="10" fill="none"/><path d="M259.75 166.492h11v13h-11zm0 0" fill="#fff"/><g fill="#0c0"><use xlink:href="#a" x="259.75" y="176.394"/><use xlink:href="#b" x="267.201" y="176.394"/></g></g></svg>
